docs/reference/data-models/aws/img/aws_cognito_user.svg

<svg xmlns="http://www.w3.org/2000/svg" xmlns:xlink="http://www.w3.org/1999/xlink" width="618" height="918" preserveAspectRatio="none" style="width:618px;height:918px;background:#00000000"><a xlink:actuate="onRequest" xlink:href="#a" xlink:show="new" xlink:title="#aws_resource" xlink:type="simple" target="_top"><rect id="a" width="155" height="70.594" x="151.5" y="404" fill="#3D176E" rx="2.5" ry="2.5" style="stroke:#000d19;stroke-width:1.5"/><circle cx="166.5" cy="423.894" r="11" fill="#E98DF7" style="stroke:#000d19;stroke-width:1"/><path d="M169.469 429.535q-.578.297-1.219.438-.64.156-1.344.156-2.5 0-3.828-1.64-1.312-1.657-1.312-4.782t1.312-4.781q1.328-1.656 3.828-1.656.703 0 1.344.156.656.156 1.219.453v2.719q-.625-.579-1.219-.844-.594-.281-1.219-.281-1.344 0-2.031 1.078-.688 1.062-.688 3.156 0 2.094.688 3.172.688 1.062 2.031 1.062.625 0 1.219-.265.594-.281 1.219-.86v2.72Z"/><text x="185.5" y="429.78" fill="#D9B8FF" font-family="Helvetica" font-size="17" textLength="113">aws_resource</text><path d="M152.5 443.789h153" style="stroke:#000d19;stroke-width:1.5"/><text x="162.5" y="463" fill="#D9B8FF" font-family="sans-serif" font-size="11" font-weight="bold" textLength="21">arn</text><text x="183.5" y="463" fill="#D9B8FF" font-family="sans-serif" font-size="11" textLength="41">: string</text></a><a xlink:actuate="onRequest" xlink:href="#b" xlink:show="new" xlink:title="#user" xlink:type="simple" target="_top"><rect id="b" width="78" height="39.789" x="342" y="419.5" fill="#3D176E" rx="2.5" ry="2.5" style="stroke:#000d19;stroke-width:1.5"/><circle cx="357" cy="439.394" r="11" fill="#E98DF7" style="stroke:#000d19;stroke-width:1"/><path d="M359.969 445.035q-.578.297-1.219.438-.64.156-1.344.156-2.5 0-3.828-1.64-1.312-1.657-1.312-4.782t1.312-4.781q1.328-1.656 3.828-1.656.703 0 1.344.156.656.156 1.219.453v2.719q-.625-.579-1.219-.844-.594-.281-1.219-.281-1.344 0-2.031 1.078-.688 1.062-.688 3.156 0 2.094.688 3.172.688 1.062 2.031 1.062.625 0 1.219-.265.594-.281 1.219-.86v2.72Z"/><text x="376" y="445.28" fill="#D9B8FF" font-family="Helvetica" font-size="17" textLength="36">user</text></a><a xlink:actuate="onRequest" xlink:href="#c" xlink:show="new" xlink:title="#resource" xlink:type="simple" target="_top"><rect id="c" width="195" height="275.836" x="206.5" y="7" fill="#3D176E" rx="2.5" ry="2.5" style="stroke:#000d19;stroke-width:1.5"/><circle cx="259.25" cy="26.895" r="11" fill="#E98DF7" style="stroke:#000d19;stroke-width:1"/><path d="M262.219 32.535q-.578.297-1.219.438-.64.156-1.344.156-2.5 0-3.828-1.64-1.312-1.657-1.312-4.782t1.312-4.781q1.328-1.656 3.828-1.656.703 0 1.344.156.656.156 1.219.453v2.719q-.625-.578-1.219-.844-.594-.281-1.219-.281-1.344 0-2.031 1.078-.688 1.062-.688 3.156 0 2.094.688 3.172.688 1.062 2.031 1.062.625 0 1.219-.265.594-.281 1.219-.86v2.72Z"/><text x="284.75" y="32.78" fill="#D9B8FF" font-family="Helvetica" font-size="17" textLength="71">resource</text><path d="M207.5 46.789h193" style="stroke:#000d19;stroke-width:1.5"/><text x="217.5" y="65.999" fill="#D9B8FF" font-family="sans-serif" font-size="11" font-weight="bold" textLength="12">id</text><text x="229.5" y="65.999" fill="#D9B8FF" font-family="sans-serif" font-size="11" textLength="41">: string</text><text x="217.5" y="88.804" fill="#D9B8FF" font-family="sans-serif" font-size="11" font-weight="bold" textLength="28">tags</text><text x="245.5" y="88.804" fill="#D9B8FF" font-family="sans-serif" font-size="11" textLength="145">: dictionary[string, string]</text><text x="217.5" y="111.609" fill="#D9B8FF" font-family="sans-serif" font-size="11" font-weight="bold" textLength="35">name</text><text x="252.5" y="111.609" fill="#D9B8FF" font-family="sans-serif" font-size="11" textLength="41">: string</text><text x="217.5" y="134.414" fill="#D9B8FF" font-family="sans-serif" font-size="11" font-weight="bold" textLength="35">ctime</text><text x="252.5" y="134.414" fill="#D9B8FF" font-family="sans-serif" font-size="11" textLength="58">: datetime</text><text x="217.5" y="157.218" fill="#D9B8FF" font-family="sans-serif" font-size="11" font-weight="bold" textLength="24">age</text><text x="241.5" y="157.218" fill="#D9B8FF" font-family="sans-serif" font-size="11" textLength="55">: duration</text><text x="217.5" y="180.023" fill="#D9B8FF" font-family="sans-serif" font-size="11" font-weight="bold" textLength="39">mtime</text><text x="256.5" y="180.023" fill="#D9B8FF" font-family="sans-serif" font-size="11" textLength="58">: datetime</text><text x="217.5" y="202.828" fill="#D9B8FF" font-family="sans-serif" font-size="11" font-weight="bold" textLength="75">last_update</text><text x="292.5" y="202.828" fill="#D9B8FF" font-family="sans-serif" font-size="11" textLength="55">: duration</text><text x="217.5" y="225.632" fill="#D9B8FF" font-family="sans-serif" font-size="11" font-weight="bold" textLength="36">atime</text><text x="253.5" y="225.632" fill="#D9B8FF" font-family="sans-serif" font-size="11" textLength="58">: datetime</text><text x="217.5" y="248.437" fill="#D9B8FF" font-family="sans-serif" font-size="11" font-weight="bold" textLength="74">last_access</text><text x="291.5" y="248.437" fill="#D9B8FF" font-family="sans-serif" font-size="11" textLength="55">: duration</text><text x="217.5" y="271.242" fill="#D9B8FF" font-family="sans-serif" font-size="11" font-weight="bold" textLength="27">kind</text><text x="244.5" y="271.242" fill="#D9B8FF" font-family="sans-serif" font-size="11" textLength="41">: string</text></a><a xlink:actuate="onRequest" xlink:href="#d" xlink:show="new" xlink:title="#aws_cognito_attribute_type" xlink:type="simple" target="_top"><rect id="d" width="274" height="93.398" x="7" y="818" fill="#3D176E" rx="2.5" ry="2.5" style="stroke:#000d19;stroke-width:1.5"/><circle cx="22" cy="837.894" r="11" fill="#E98DF7" style="stroke:#000d19;stroke-width:1"/><path d="M24.969 843.535q-.578.297-1.219.438-.64.156-1.344.156-2.5 0-3.828-1.64-1.312-1.657-1.312-4.782t1.312-4.781q1.328-1.657 3.828-1.657.703 0 1.344.157.656.156 1.219.453v2.719q-.625-.578-1.219-.844-.594-.281-1.219-.281-1.343 0-2.031 1.078-.688 1.062-.688 3.156 0 2.094.688 3.172.688 1.062 2.031 1.062.625 0 1.219-.265.594-.282 1.219-.86v2.72Z"/><text x="41" y="843.78" fill="#D9B8FF" font-family="Helvetica" font-size="17" textLength="232">aws_cognito_attribute_type</text><path d="M8 857.789h272" style="stroke:#000d19;stroke-width:1.5"/><text x="18" y="877" fill="#D9B8FF" font-family="sans-serif" font-size="11" font-weight="bold" textLength="35">name</text><text x="53" y="877" fill="#D9B8FF" font-family="sans-serif" font-size="11" textLength="41">: string</text><text x="18" y="899.804" fill="#D9B8FF" font-family="sans-serif" font-size="11" font-weight="bold" textLength="35">value</text><text x="53" y="899.804" fill="#D9B8FF" font-family="sans-serif" font-size="11" textLength="41">: string</text></a><a xlink:actuate="onRequest" xlink:href="#e" xlink:show="new" xlink:title="#aws_cognito_user" xlink:type="simple" target="_top"><rect id="e" width="289" height="161.813" x="159.5" y="596" fill="#3D176E" rx="2.5" ry="2.5" style="stroke:#000d19;stroke-width:1.5"/><circle cx="220.75" cy="615.894" r="11" fill="#E98DF7" style="stroke:#000d19;stroke-width:1"/><path d="M223.719 621.535q-.578.297-1.219.438-.64.156-1.344.156-2.5 0-3.828-1.64-1.312-1.657-1.312-4.782t1.312-4.781q1.328-1.657 3.828-1.657.703 0 1.344.157.656.156 1.219.453v2.719q-.625-.578-1.219-.844-.594-.281-1.219-.281-1.344 0-2.031 1.078-.688 1.062-.688 3.156 0 2.094.688 3.172.688 1.062 2.031 1.062.625 0 1.219-.265.594-.282 1.219-.86v2.72Z"/><text x="246.25" y="621.78" fill="#D9B8FF" font-family="Helvetica" font-size="17" textLength="148">aws_cognito_user</text><path d="M160.5 635.789h287" style="stroke:#000d19;stroke-width:1.5"/><text x="170.5" y="655" fill="#D9B8FF" font-family="sans-serif" font-size="11" font-weight="bold" textLength="21">arn</text><text x="191.5" y="655" fill="#D9B8FF" font-family="sans-serif" font-size="11" textLength="41">: string</text><text x="170.5" y="677.804" fill="#D9B8FF" font-family="sans-serif" font-size="11" font-weight="bold" textLength="97">user_attributes</text><text x="267.5" y="677.804" fill="#D9B8FF" font-family="sans-serif" font-size="11" textLength="170">: aws_cognito_attribute_type[]</text><text x="170.5" y="700.609" fill="#D9B8FF" font-family="sans-serif" font-size="11" font-weight="bold" textLength="52">enabled</text><text x="222.5" y="700.609" fill="#D9B8FF" font-family="sans-serif" font-size="11" textLength="53">: boolean</text><text x="170.5" y="723.414" fill="#D9B8FF" font-family="sans-serif" font-size="11" font-weight="bold" textLength="74">user_status</text><text x="244.5" y="723.414" fill="#D9B8FF" font-family="sans-serif" font-size="11" textLength="41">: string</text><text x="170.5" y="746.218" fill="#D9B8FF" font-family="sans-serif" font-size="11" font-weight="bold" textLength="78">mfa_options</text><text x="248.5" y="746.218" fill="#D9B8FF" font-family="sans-serif" font-size="11" textLength="185">: aws_cognito_mfa_option_type[]</text></a><a xlink:actuate="onRequest" xlink:href="#f" xlink:show="new" xlink:title="#aws_cognito_mfa_option_type" xlink:type="simple" target="_top"><rect id="f" width="295" height="93.398" x="316.5" y="818" fill="#3D176E" rx="2.5" ry="2.5" style="stroke:#000d19;stroke-width:1.5"/><circle cx="331.5" cy="837.894" r="11" fill="#E98DF7" style="stroke:#000d19;stroke-width:1"/><path d="M334.469 843.535q-.578.297-1.219.438-.64.156-1.344.156-2.5 0-3.828-1.64-1.312-1.657-1.312-4.782t1.312-4.781q1.328-1.657 3.828-1.657.703 0 1.344.157.656.156 1.219.453v2.719q-.625-.578-1.219-.844-.594-.281-1.219-.281-1.344 0-2.031 1.078-.688 1.062-.688 3.156 0 2.094.688 3.172.688 1.062 2.031 1.062.625 0 1.219-.265.594-.282 1.219-.86v2.72Z"/><text x="350.5" y="843.78" fill="#D9B8FF" font-family="Helvetica" font-size="17" textLength="253">aws_cognito_mfa_option_type</text><path d="M317.5 857.789h293" style="stroke:#000d19;stroke-width:1.5"/><text x="327.5" y="877" fill="#D9B8FF" font-family="sans-serif" font-size="11" font-weight="bold" textLength="107">delivery_medium</text><text x="434.5" y="877" fill="#D9B8FF" font-family="sans-serif" font-size="11" textLength="41">: string</text><text x="327.5" y="899.804" fill="#D9B8FF" font-family="sans-serif" font-size="11" font-weight="bold" textLength="97">attribute_name</text><text x="424.5" y="899.804" fill="#D9B8FF" font-family="sans-serif" font-size="11" textLength="41">: string</text></a><path fill="none" d="M263.83 302.65c-9.79 38.2-19.34 75.44-25.96 101.25m19.19-103.01 11.75-17.63 1.81 21.11-13.56-3.48zm88.24 2c12.26 46.57 24.14 91.69 30.63 116.35m-37.48-114.86 1.68-21.12 11.86 17.56-13.54 3.56zm-92.23 190.21c9.55 29.96 21.6 67.79 32.22 101.14m-38.97-99.3.6-21.18 12.74 16.93-13.34 4.25zm128.9-17.31c-10.32 31.57-25.26 77.27-38.15 116.69m31.61-119.2 12.87-16.84.44 21.19-13.31-4.35zm-126.85 281.4c-16.43 19.06-33.49 38.84-48.34 56.06" style="stroke:#ffaf37;stroke-width:2"/><path fill="#FFAF37" d="m183.31 817.93 8.902-4.214-5.641.424-.423-5.641-2.838 9.431z" style="stroke:#ffaf37;stroke-width:2"/><path fill="none" d="M373.02 758.01c16.43 19.06 33.49 38.84 48.34 56.06" style="stroke:#ffaf37;stroke-width:2"/><path fill="#FFAF37" d="m424.69 817.93-2.838-9.431-.423 5.64-5.641-.423 8.902 4.214z" style="stroke:#ffaf37;stroke-width:2"/></svg>

<svg xmlns="http://www.w3.org/2000/svg" xmlns:xlink="http://www.w3.org/1999/xlink" width="618" height="918" preserveAspectRatio="none" style="width:618px;height:918px;background:#00000000"><a xlink:actuate="onRequest" xlink:href="#a" xlink:show="new" xlink:title="#aws_resource" xlink:type="simple" target="_top"><rect id="a" width="155" height="70.594" x="151.5" y="404" fill="#3D176E" rx="2.5" ry="2.5" style="stroke:#000d19;stroke-width:1.5"/><circle cx="166.5" cy="423.894" r="11" fill="#E98DF7" style="stroke:#000d19;stroke-width:1"/><path d="M169.469 429.535q-.578.297-1.219.438-.64.156-1.344.156-2.5 0-3.828-1.64-1.312-1.657-1.312-4.782t1.312-4.781q1.328-1.656 3.828-1.656.703 0 1.344.156.656.156 1.219.453v2.719q-.625-.579-1.219-.844-.594-.281-1.219-.281-1.344 0-2.031 1.078-.688 1.062-.688 3.156 0 2.094.688 3.172.688 1.062 2.031 1.062.625 0 1.219-.265.594-.281 1.219-.86v2.72Z"/><text x="185.5" y="429.78" fill="#D9B8FF" font-family="Helvetica" font-size="17" textLength="113">aws_resource</text><path d="M152.5 443.789h153" style="stroke:#000d19;stroke-width:1.5"/><text x="162.5" y="463" fill="#D9B8FF" font-family="sans-serif" font-size="11" font-weight="bold" textLength="21">arn</text><text x="183.5" y="463" fill="#D9B8FF" font-family="sans-serif" font-size="11" textLength="41">: string</text></a><a xlink:actuate="onRequest" xlink:href="#b" xlink:show="new" xlink:title="#user" xlink:type="simple" target="_top"><rect id="b" width="78" height="39.789" x="342" y="419.5" fill="#3D176E" rx="2.5" ry="2.5" style="stroke:#000d19;stroke-width:1.5"/><circle cx="357" cy="439.394" r="11" fill="#E98DF7" style="stroke:#000d19;stroke-width:1"/><path d="M359.969 445.035q-.578.297-1.219.438-.64.156-1.344.156-2.5 0-3.828-1.64-1.312-1.657-1.312-4.782t1.312-4.781q1.328-1.656 3.828-1.656.703 0 1.344.156.656.156 1.219.453v2.719q-.625-.579-1.219-.844-.594-.281-1.219-.281-1.344 0-2.031 1.078-.688 1.062-.688 3.156 0 2.094.688 3.172.688 1.062 2.031 1.062.625 0 1.219-.265.594-.281 1.219-.86v2.72Z"/><text x="376" y="445.28" fill="#D9B8FF" font-family="Helvetica" font-size="17" textLength="36">user</text></a><a xlink:actuate="onRequest" xlink:href="#c" xlink:show="new" xlink:title="#resource" xlink:type="simple" target="_top"><rect id="c" width="195" height="275.836" x="206.5" y="7" fill="#3D176E" rx="2.5" ry="2.5" style="stroke:#000d19;stroke-width:1.5"/><circle cx="259.25" cy="26.895" r="11" fill="#E98DF7" style="stroke:#000d19;stroke-width:1"/><path d="M262.219 32.535q-.578.297-1.219.438-.64.156-1.344.156-2.5 0-3.828-1.64-1.312-1.657-1.312-4.782t1.312-4.781q1.328-1.656 3.828-1.656.703 0 1.344.156.656.156 1.219.453v2.719q-.625-.578-1.219-.844-.594-.281-1.219-.281-1.344 0-2.031 1.078-.688 1.062-.688 3.156 0 2.094.688 3.172.688 1.062 2.031 1.062.625 0 1.219-.265.594-.281 1.219-.86v2.72Z"/><text x="284.75" y="32.78" fill="#D9B8FF" font-family="Helvetica" font-size="17" textLength="71">resource</text><path d="M207.5 46.789h193" style="stroke:#000d19;stroke-width:1.5"/><text x="217.5" y="65.999" fill="#D9B8FF" font-family="sans-serif" font-size="11" font-weight="bold" textLength="12">id</text><text x="229.5" y="65.999" fill="#D9B8FF" font-family="sans-serif" font-size="11" textLength="41">: string</text><text x="217.5" y="88.804" fill="#D9B8FF" font-family="sans-serif" font-size="11" font-weight="bold" textLength="28">tags</text><text x="245.5" y="88.804" fill="#D9B8FF" font-family="sans-serif" font-size="11" textLength="145">: dictionary[string, string]</text><text x="217.5" y="111.609" fill="#D9B8FF" font-family="sans-serif" font-size="11" font-weight="bold" textLength="35">name</text><text x="252.5" y="111.609" fill="#D9B8FF" font-family="sans-serif" font-size="11" textLength="41">: string</text><text x="217.5" y="134.414" fill="#D9B8FF" font-family="sans-serif" font-size="11" font-weight="bold" textLength="35">ctime</text><text x="252.5" y="134.414" fill="#D9B8FF" font-family="sans-serif" font-size="11" textLength="58">: datetime</text><text x="217.5" y="157.218" fill="#D9B8FF" font-family="sans-serif" font-size="11" font-weight="bold" textLength="24">age</text><text x="241.5" y="157.218" fill="#D9B8FF" font-family="sans-serif" font-size="11" textLength="55">: duration</text><text x="217.5" y="180.023" fill="#D9B8FF" font-family="sans-serif" font-size="11" font-weight="bold" textLength="39">mtime</text><text x="256.5" y="180.023" fill="#D9B8FF" font-family="sans-serif" font-size="11" textLength="58">: datetime</text><text x="217.5" y="202.828" fill="#D9B8FF" font-family="sans-serif" font-size="11" font-weight="bold" textLength="75">last_update</text><text x="292.5" y="202.828" fill="#D9B8FF" font-family="sans-serif" font-size="11" textLength="55">: duration</text><text x="217.5" y="225.632" fill="#D9B8FF" font-family="sans-serif" font-size="11" font-weight="bold" textLength="36">atime</text><text x="253.5" y="225.632" fill="#D9B8FF" font-family="sans-serif" font-size="11" textLength="58">: datetime</text><text x="217.5" y="248.437" fill="#D9B8FF" font-family="sans-serif" font-size="11" font-weight="bold" textLength="74">last_access</text><text x="291.5" y="248.437" fill="#D9B8FF" font-family="sans-serif" font-size="11" textLength="55">: duration</text><text x="217.5" y="271.242" fill="#D9B8FF" font-family="sans-serif" font-size="11" font-weight="bold" textLength="27">kind</text><text x="244.5" y="271.242" fill="#D9B8FF" font-family="sans-serif" font-size="11" textLength="41">: string</text></a><a xlink:actuate="onRequest" xlink:href="#d" xlink:show="new" xlink:title="#aws_cognito_attribute_type" xlink:type="simple" target="_top"><rect id="d" width="274" height="93.398" x="7" y="818" fill="#3D176E" rx="2.5" ry="2.5" style="stroke:#000d19;stroke-width:1.5"/><circle cx="22" cy="837.894" r="11" fill="#E98DF7" style="stroke:#000d19;stroke-width:1"/><path d="M24.969 843.535q-.578.297-1.219.438-.64.156-1.344.156-2.5 0-3.828-1.64-1.312-1.657-1.312-4.782t1.312-4.781q1.328-1.657 3.828-1.657.703 0 1.344.157.656.156 1.219.453v2.719q-.625-.578-1.219-.844-.594-.281-1.219-.281-1.343 0-2.031 1.078-.688 1.062-.688 3.156 0 2.094.688 3.172.688 1.062 2.031 1.062.625 0 1.219-.265.594-.282 1.219-.86v2.72Z"/><text x="41" y="843.78" fill="#D9B8FF" font-family="Helvetica" font-size="17" textLength="232">aws_cognito_attribute_type</text><path d="M8 857.789h272" style="stroke:#000d19;stroke-width:1.5"/><text x="18" y="877" fill="#D9B8FF" font-family="sans-serif" font-size="11" font-weight="bold" textLength="35">name</text><text x="53" y="877" fill="#D9B8FF" font-family="sans-serif" font-size="11" textLength="41">: string</text><text x="18" y="899.804" fill="#D9B8FF" font-family="sans-serif" font-size="11" font-weight="bold" textLength="35">value</text><text x="53" y="899.804" fill="#D9B8FF" font-family="sans-serif" font-size="11" textLength="41">: string</text></a><a xlink:actuate="onRequest" xlink:href="#e" xlink:show="new" xlink:title="#aws_cognito_user" xlink:type="simple" target="_top"><rect id="e" width="289" height="161.813" x="159.5" y="596" fill="#3D176E" rx="2.5" ry="2.5" style="stroke:#000d19;stroke-width:1.5"/><circle cx="220.75" cy="615.894" r="11" fill="#E98DF7" style="stroke:#000d19;stroke-width:1"/><path d="M223.719 621.535q-.578.297-1.219.438-.64.156-1.344.156-2.5 0-3.828-1.64-1.312-1.657-1.312-4.782t1.312-4.781q1.328-1.657 3.828-1.657.703 0 1.344.157.656.156 1.219.453v2.719q-.625-.578-1.219-.844-.594-.281-1.219-.281-1.344 0-2.031 1.078-.688 1.062-.688 3.156 0 2.094.688 3.172.688 1.062 2.031 1.062.625 0 1.219-.265.594-.282 1.219-.86v2.72Z"/><text x="246.25" y="621.78" fill="#D9B8FF" font-family="Helvetica" font-size="17" textLength="148">aws_cognito_user</text><path d="M160.5 635.789h287" style="stroke:#000d19;stroke-width:1.5"/><text x="170.5" y="655" fill="#D9B8FF" font-family="sans-serif" font-size="11" font-weight="bold" textLength="21">arn</text><text x="191.5" y="655" fill="#D9B8FF" font-family="sans-serif" font-size="11" textLength="41">: string</text><text x="170.5" y="677.804" fill="#D9B8FF" font-family="sans-serif" font-size="11" font-weight="bold" textLength="97">user_attributes</text><text x="267.5" y="677.804" fill="#D9B8FF" font-family="sans-serif" font-size="11" textLength="170">: aws_cognito_attribute_type[]</text><text x="170.5" y="700.609" fill="#D9B8FF" font-family="sans-serif" font-size="11" font-weight="bold" textLength="52">enabled</text><text x="222.5" y="700.609" fill="#D9B8FF" font-family="sans-serif" font-size="11" textLength="53">: boolean</text><text x="170.5" y="723.414" fill="#D9B8FF" font-family="sans-serif" font-size="11" font-weight="bold" textLength="74">user_status</text><text x="244.5" y="723.414" fill="#D9B8FF" font-family="sans-serif" font-size="11" textLength="41">: string</text><text x="170.5" y="746.218" fill="#D9B8FF" font-family="sans-serif" font-size="11" font-weight="bold" textLength="78">mfa_options</text><text x="248.5" y="746.218" fill="#D9B8FF" font-family="sans-serif" font-size="11" textLength="185">: aws_cognito_mfa_option_type[]</text></a><a xlink:actuate="onRequest" xlink:href="#f" xlink:show="new" xlink:title="#aws_cognito_mfa_option_type" xlink:type="simple" target="_top"><rect id="f" width="295" height="93.398" x="316.5" y="818" fill="#3D176E" rx="2.5" ry="2.5" style="stroke:#000d19;stroke-width:1.5"/><circle cx="331.5" cy="837.894" r="11" fill="#E98DF7" style="stroke:#000d19;stroke-width:1"/><path d="M334.469 843.535q-.578.297-1.219.438-.64.156-1.344.156-2.5 0-3.828-1.64-1.312-1.657-1.312-4.782t1.312-4.781q1.328-1.657 3.828-1.657.703 0 1.344.157.656.156 1.219.453v2.719q-.625-.578-1.219-.844-.594-.281-1.219-.281-1.344 0-2.031 1.078-.688 1.062-.688 3.156 0 2.094.688 3.172.688 1.062 2.031 1.062.625 0 1.219-.265.594-.282 1.219-.86v2.72Z"/><text x="350.5" y="843.78" fill="#D9B8FF" font-family="Helvetica" font-size="17" textLength="253">aws_cognito_mfa_option_type</text><path d="M317.5 857.789h293" style="stroke:#000d19;stroke-width:1.5"/><text x="327.5" y="877" fill="#D9B8FF" font-family="sans-serif" font-size="11" font-weight="bold" textLength="107">delivery_medium</text><text x="434.5" y="877" fill="#D9B8FF" font-family="sans-serif" font-size="11" textLength="41">: string</text><text x="327.5" y="899.804" fill="#D9B8FF" font-family="sans-serif" font-size="11" font-weight="bold" textLength="97">attribute_name</text><text x="424.5" y="899.804" fill="#D9B8FF" font-family="sans-serif" font-size="11" textLength="41">: string</text></a><path fill="none" d="M263.83 302.65c-9.79 38.2-19.34 75.44-25.96 101.25M257.06 300.89l11.75-17.63 1.81 21.11-13.56-3.48zM345.3 302.89c12.26 46.57 24.14 91.69 30.63 116.35M338.45 304.38l1.68-21.12 11.86 17.56-13.54 3.56zM246.22 494.59c9.55 29.96 21.6 67.79 32.22 101.14M239.47 496.43l.6-21.18 12.74 16.93-13.34 4.25zM368.37 479.12c-10.32 31.57-25.26 77.27-38.15 116.69M361.83 476.61l12.87-16.84.44 21.19-13.31-4.35zM234.98 758.01c-16.43 19.06-33.49 38.84-48.34 56.06" style="stroke:#ffaf37;stroke-width:2"/><path fill="#FFAF37" d="m183.31 817.93 8.902-4.214-5.641.424-.423-5.641-2.838 9.431z" style="stroke:#ffaf37;stroke-width:2"/><path fill="none" d="M373.02 758.01c16.43 19.06 33.49 38.84 48.34 56.06" style="stroke:#ffaf37;stroke-width:2"/><path fill="#FFAF37" d="m424.69 817.93-2.838-9.431-.423 5.64-5.641-.423 8.902 4.214z" style="stroke:#ffaf37;stroke-width:2"/></svg>
